X:19
T:Sheehan's
M:C|
L:1/8
Q:120
R:Reel (Key of G)
K:G
"G"G2BG DGBG | ABcd BG~G2 | "C"AGAB c2cA | "D"EAAG FDEF |
"G"G2BG DGBd | cBAB cdef | "C"gedB c2Bc |1 "D"dBcA BGAF :|2 "D"dBcA BGBd |:
"G"g2bg dgba | gbag fdde | "D"f2af dfaf | gbag fdef |
"G"g2bg dgba | gbag fdef | "C"gedB c2Bc |1 "D"dBcA BGBd :|2 "D"dBcA BGAF|]
